X:21
T:Chaplet
M:C|
L:1/8
B:Thompson's Compleat Collection of 200 Favourite Country Dances, vol. 1 (London, 1757)
Z:Transcribed and edited by Fynnian Titford-Mock, 2007
Z:abc's:AK/Fiddler's Companion
K:D
a2 f/g/a g2 e/f/g|fdAf ec A2|dAfd afbg|f/g/a Ac d2D2:|
|:AF/G/ Af ec A2|AF/G/ Ag f2e2|AF/G/ Af edef|gfed c2e2|
a2 f/g/a g2 e/f/g|fdaf ecAc|dAfd afbg|f/g/a Ac d2D2:|

